X: 212
T: Pleasures of Hope, The
M: 4/4
L: 1/8
R: march
N: Cheerfully
K: DMaj
DF |\ 
A2 AB AFEF | A>Bd>d d3 B | AFdB AFEF | DEF>G A2 dc |
BdAF EGFE | DEFA d2 dc | B2 {cB}AF A2 FD | E4 D2 ||
DF |\
AdBd AFE>F | D2 D2 D2 DF | ABAF ABde | fedf e2 de |
fedf edBd | AFdF E2 dc | B2 {cB}AF A2 FD | E4 D2 |]
